X: 10461
T: AULD ROB MORRIS
Q: "Slow."
%R: air, waltz
B: W. Hamilton "Universal Tune-Book" Vol. 1 Glasgow 1844 p.46 #1
S: http://imslp.org/wiki/Hamilton's_Universal_Tune-Book_(Various)
Z: 2016 John Chambers <jc:trillian.mit.edu>
M: 3/4
L: 1/8
K: G
% - - - - - - - - - - - - - - - - - - - - - - - - -
B>A |\
G2E2D2 | E2G2g>f | (ed)(cB)(AG) | B2A2B>A |\
G>AGED2 | E2G2g>f | (ed)(cB)(A>B) | G4 :|
|: c>B |\
A2A2B>d | e2e2g>a | (b>a)(ge)(dB) | B2A2B>A |\
(G>B)(E>G)D2 | E2G2g>f | (ed)(cB)(A>B) | G4 :|
% - - - - - - - - - - - - - - - - - - - - - - - - -

%%sep 1 1 500
%%sep 1 1 500

